X:410
T:Maclean of Ardgour 
C:Joe Buchanan's Scottish Tome - Page 374.0
I:374 0
C:P/M John McLellan D.C.M.
R:March
Z:Carl Allison
L:1/8
M:2/4
K:D
A/>d/ | f>g a/>g/e/>f/ | A/>B/d/>e/ fa/>f/ | eA/<B/ ce/>f/ | gf/>d/ f/>e/c/<A/ |
f/>a/d/>f/ AA/>d/ | B/>d/A/<d/ f/<a/g/<e/ | cA/>c/ c/<a/e/>f/ | d2 d :|
f/>g/ | af/<d/ AA/>A/ | A/>B/d/>e/ f/<a/d/<f/ | eA/>d/ c/>e/A/<e/ | g/>f/e/<d/ f/>e/c/<A/ |
af/<d/ AA/>d/ | B/<d/A/<d/ f/<a/g/<e/ | cA/>c/ c/>a/e/<f/ d2 d :|
f/>e/ | d/<A/B/<d/ f/>g/a/>g/ | f/>d/A/<d/ f/>a/d/<f/ | e/>c/A/>c/ f/>c/e/>f/ | g/>f/e/<d/ f/>e/c/<A/ |
B/<d/A/>d/ f/>g/a/>g/ | f/>d/A/>d/ f/>a/g/<e/ | cA/>c/ c/>a/e/<f/ | d2 d :|
f/>g/ | a/>f/d/<f/ AA/>g/ | f/<a/d/<f/ A/>f/d/<f/ | g/>e/c/<e/ A/>c/e/>f/ | g/>f/e/<d/ f/>e/c/<A/ |
a/>f/d/<f/ AA/>d/ | B/<d/A/<d/ f/<a/g/<e/ | cA/>c/ c/<a/e/>f/ | d2 d :|

